X: 56
T: Da pacem Domine
N: Derived from Mar2019-Da_pacem_domine.krn
C: Johannes Martini
%%abc-version 2.0
%%abcx-abcm2ps-target-version 5.9.1 (29 Sep 2008)
%%abc-creator hum2abc beta
%%abcx-conversion-date 2019/02/17 07:19:42
%%abc-edited-by Jesse Rodin
%%abc-edited-by Chris Gage 09-09-2014
%%abcx-initial-encoding-date 2014/10/05/
%%humdrum-veritas 1487865523
%%humdrum-veritas-data 2454899709
%%linebreak <none>
%%barnumbers 0
L: 1/4
M: 2/1
Q: 1/2=120
%%staves [1 2 3 4]
V: 1 clef=treble
V: 2 clef=treble-8
V: 3 clef=treble-8
V: 4 clef=bass
K: F
[V:1] z8 | 
[V:2] z8 | 
[V:3] z8 | 
[V:4] G,,8 | 
[V:1] z8 | 
[V:2] z8 | 
[V:3] z8 | 
[V:4] F,,8 | 
[V:1] G8 | 
[V:2] z8 | 
[V:3] z8 | 
[V:4] G,,8 | 
[V:1] F8 | 
[V:2] z8 | 
[V:3] z8 | 
[V:4] B,,3C,D,_E,D,2- | 
[V:1] G8 | 
[V:2] z8 | 
[V:3] z8 | 
[V:4] D,2C,B,,C,4 | 
[V:1] B3cd_ed2- | 
[V:2] z8 | 
[V:3] G8 | 
[V:4] B,,2G,,4B,,2- | 
[V:1] d2cBc4 | 
[V:2] z8 | 
[V:3] F8 | 
[V:4] B,,2A,,G,,A,,4 | 
[V:1] B4G2B2- | 
[V:2] z8 | 
[V:3] G8 | 
[V:4] G,,4G,,4 | 
[V:1] BAG3AB2- | 
[V:2] G8 | 
[V:3] B3cd_ed2- | 
[V:4] z8 | 
[V:1] B2AGA4 | 
[V:2] F8 | 
[V:3] d2cBc4 | 
[V:4] z8 | 
[V:1] G6FE | 
[V:2] G8 | 
[V:3] B4z4 | 
[V:4] G,,4C,4 | 
[V:1] D4F4 | 
[V:2] B3cd_ed2- | 
[V:3] z8 | 
[V:4] B,,8 | 
[V:1] E8 | 
[V:2] d2cBc4 | 
[V:3] z4A4 | 
[V:4] C,8 | 
[V:1] D8 | 
[V:2] B4z4 | 
[V:3] B6d2- | 
[V:4] G,4B,2A,G, | 
[V:1] z8 | 
[V:2] z8 | 
[V:3] d2c2B2c2- | 
[V:4] B,2A,2G,2A,2- | 
[V:1] z8 | 
[V:2] z4A4 | 
[V:3] cBAGA4 | 
[V:4] A,G,G,4^F,2 | 
[V:1] B6AG | 
[V:2] B6d2- | 
[V:3] G8 | 
[V:4] G,4z2G,2- | 
[V:1] B2A2G2A2- | 
[V:2] d2c2B2c2- | 
[V:3] z8 | 
[V:4] G,D,F,2G,2F,2- | 
[V:1] AGG4^F2 | 
[V:2] cBAGA4 | 
[V:3] z8 | 
[V:4] F,G,E,2D,4 | 
[V:1] G2G,3A,B,C | 
[V:2] G8 | 
[V:3] B6AG | 
[V:4] G,,4z2G,2- | 
[V:1] D2C2B,2C2- | 
[V:2] z8 | 
[V:3] B2A2G2A2- | 
[V:4] G,D,F,2G,2F,2- | 
[V:1] CB,A,G,A,4 | 
[V:2] z8 | 
[V:3] AGG4^F2 | 
[V:4] F,G,E,2D,4 | 
[V:1] G,4z4 | 
[V:2] B6AG | 
[V:3] G4z4 | 
[V:4] z2G,,3A,,B,,C, | 
[V:1] z8 | 
[V:2] B2A2G2A2- | 
[V:3] z8 | 
[V:4] D,2C,2B,,2C,2- | 
[V:1] z4A,4 | 
[V:2] AGG4^F2 | 
[V:3] z8 | 
[V:4] C,B,,A,,G,,A,,4 | 
[V:1] B,8 | 
[V:2] G4z4 | 
[V:3] z8 | 
[V:4] G,,4G,4 | 
[V:1] C8 | 
[V:2] z8 | 
[V:3] z8 | 
[V:4] A,2F,3G,A,B, | 
[V:1] D4C4 | 
[V:2] z8 | 
[V:3] z4A4 | 
[V:4] G,2B,2F,4 | 
[V:1] D3EF2G2- | 
[V:2] z8 | 
[V:3] B8 | 
[V:4] B,,3C,D,2_E,2- | 
[V:1] GEA3GFE | 
[V:2] z8 | 
[V:3] c8 | 
[V:4] E,C,F,3=E,D,C, | 
[V:1] D2F2E4 | 
[V:2] z4A4 | 
[V:3] d4c4 | 
[V:4] B,,2D,2A,,4 | 
[V:1] D8 | 
[V:2] B8 | 
[V:3] d8 | 
[V:4] z4D,4 | 
[V:1] G,4A,4 | 
[V:2] c8 | 
[V:3] e8 | 
[V:4] C,8 | 
[V:1] B,4G,4 | 
[V:2] d4c4 | 
[V:3] f4e4- | 
[V:4] B,,4C,4 | 
[V:1] B,4A,4 | 
[V:2] d8 | 
[V:3] e2d2d4- | 
[V:4] B,,4D,4 | 
[V:1] z4A4- | 
[V:2] e8 | 
[V:3] d4^c4 | 
[V:4] A,,8 | 
[V:1] A2B2c4 | 
[V:2] f4e4- | 
[V:3] d4z4 | 
[V:4] D,4C,4 | 
[V:1] A8 | 
[V:2] e2d2d4- | 
[V:3] z8 | 
[V:4] D,8 | 
[V:1] G8 | 
[V:2] d4^c4 | 
[V:3] z8 | 
[V:4] E,8 | 
[V:1] z4d4 | 
[V:2] d4z4 | 
[V:3] z8 | 
[V:4] D,6E,2 | 
[V:1] c4B4 | 
[V:2] z8 | 
[V:3] z4d4 | 
[V:4] F,4z2G,2- | 
[V:1] A4B2d2 | 
[V:2] z8 | 
[V:3] c4B4 | 
[V:4] G,2F,2G,2B,2 | 
[V:1] c4B2B2- | 
[V:2] z8 | 
[V:3] A4B2d2 | 
[V:4] F,4z2G,2- | 
[V:1] B2A2B2G2 | 
[V:2] z4d4 | 
[V:3] c4B2B2- | 
[V:4] G,2F,2G,2B,2 | 
[V:1] A2F4ED | 
[V:2] c4B4 | 
[V:3] B2A2B4 | 
[V:4] F,4D,4 | 
[V:1] E4D2F2- | 
[V:2] A4B2d2 | 
[V:3] z8 | 
[V:4] C,4B,,4 | 
[V:1] F2E2D2F2 | 
[V:2] c4B2B2- | 
[V:3] z8 | 
[V:4] A,,4B,,2D,2 | 
[V:1] G2A2D4 | 
[V:2] B2A2B4 | 
[V:3] z8 | 
[V:4] C,4B,,4 | 
[V:1] z2D2E2F2 | 
[V:2] z8 | 
[V:3] B4A4 | 
[V:4] G,,2B,,2C,2D,2 | 
[V:1] G2B4A2 | 
[V:2] z8 | 
[V:3] B4c4 | 
[V:4] G,,2G,2F,4 | 
[V:1] B3AF4 | 
[V:2] z8 | 
[V:3] B2d3cBA | 
[V:4] G,4D,4 | 
[V:1] G4E3D | 
[V:2] B4A4 | 
[V:3] G2B2c2A2- | 
[V:4] z2G,,2A,,2C,2 | 
[V:1] F2G2A4 | 
[V:2] B4c4 | 
[V:3] AGG4^F2 | 
[V:4] D,2B,,2A,,4 | 
[V:1] D4z4 | 
[V:2] B2d3cBA | 
[V:3] G2B3cd2- | 
[V:4] G,,8 | 
[V:1] B4A4 | 
[V:2] G2B2c2A2- | 
[V:3] d2G2A2c2- | 
[V:4] z8 | 
[V:1] B4c4 | 
[V:2] AGG4^F2 | 
[V:3] c2B2A4 | 
[V:4] z8 | 
[V:1] B2d3cBA | 
[V:2] G2B3cd2- | 
[V:3] G4z4 | 
[V:4] G,,4G,2A,2 | 
[V:1] G2B2c2A2- | 
[V:2] d2G2A2c2- | 
[V:3] d4c2f2- | 
[V:4] B,4A,2F,2- | 
[V:1] AGG4^F2 | 
[V:2] c2B2A4 | 
[V:3] f2e2d4 | 
[V:4] F,2G,2D,4 | 
[V:1] G8 |]  
[V:2] G8 |]  
[V:3] d8 |]  
[V:4] G,,8 |]  



